X:6665
T:The Crack in the Year Arr Gary Blair
O:england
M:6/8
L:1/8
C:Frazer McLellan
R:Jig
K:G
_B|B2 d BAG|A2 B AGE|E2 D DEG|Bdg e2 d|B2 d BAG|A2 B AGE|E2 D DED|EGG G3
:|
ded dBG|e2 e edB|g>g/g/g gab|bag ged|ded dBG|e2 e edB|g>g/g/g gab|agf g3
:|
